X: 1
T: String Quartet in D Major opus 76 no 5 mvt 4
C: Franz Joseph Haydn
%%abc-version 2.0
%%abcx-abcm2ps-target-version 5.9.1 (29 Sep 2008)
%%abc-creator hum2abc beta
%%abcx-conversion-date 2021/02/14 14:38:22
%%abc-copyright Copyright (c) 1994, 2000 Center for Computer Assisted Research in the Humanities
%%abc-edited-by Frances Bennion
%%abcx-initial-encoding-date 1997/04/15
%%gracespace 0 6 6
%%humdrum-veritas 606259979
%%humdrum-veritas-data 2305659535
%%linebreak <none>
%%barnumbers 0
L: 1/8
M: 2/4
N: Derived from op76n5-04.krn
Q: "Finale: Presto"
%%staves [1 2 3 4]
V: 1
V: 2
V: 3 clef=alto
V: 4 clef=bass
K: D
[V:1]z3 c' [I:setbarnb1]|
[V:2]z3 e |
[V:3]z3 G |
[V:4]z3 A, |
[V:1]d'2 z2 |
[V:2]f2 z2 |
[V:3]F2 z2 |
[V:4]D,2 z2 |
[V:1]z3 c' |
[V:2]z3 e |
[V:3]z3 G |
[V:4]z3 A, |
[V:1]d'2 z2 |
[V:2]f2 z2 |
[V:3]F2 z2 |
[V:4]D,2 z2 |
[V:1]z3 c' |
[V:2]z3 e |
[V:3]z3 G |
[V:4]z3 A, |
[V:1]d'c' d'c' |
[V:2]fe fe |
[V:3]FG FG |
[V:4]D,A, D,A, |
[V:1]d'2 z2 |
[V:2]f2 zA |
[V:3]F2 zD |
[V:4]D,2 z2 |
[V:1]z4 |
[V:2]AA AA |
[V:3]DD DD |
[V:4]z4 |
[V:1]z3 a/g/ |
[V:2]AA AA |
[V:3]DD DD |
[V:4]z4 |
[V:1]ff/e/ de |
[V:2]AA AA |
[V:3]DD DD |
[V:4]z4 |
[V:1]f/g/f/e/ da/g/ |
[V:2]AA AA |
[V:3]DD DD |
[V:4]z4 |
[V:1]ff/e/ de |
[V:2]AA AA |
[V:3]DD DD |
[V:4]z4 |
[V:1]f2 dz |
[V:2]AA AA |
[V:3]DD DD |
[V:4]z3 A,/G,/ |
[V:1]z4 |
[V:2]AA AA |
[V:3]DD DD |
[V:4]F,F,/E,/ D,E, |
[V:1]z4 |
[V:2]AA AA |
[V:3]DD DD |
[V:4]F,/G,/F,/E,/ D,A,/G,/ |
[V:1]z4 |
[V:2]AA AA |
[V:3]DD DD |
[V:4]F,F,/E,/ D,E, |
[V:1]z3 c' |
[V:2]AA Ae |
[V:3]DD DG |
[V:4]F,2 D,A, |
[V:1]d'2 zc' |
[V:2]f2 ze |
[V:3]F2 zG |
[V:4]D,2 zA, |
[V:1]d'2 zc' |
[V:2]f2 ze |
[V:3]F2 zG |
[V:4]D,2 zA, |
[V:1]d'c' d'c' |
[V:2]fe fe |
[V:3]FG FG |
[V:4]D,A, D,A, |
[V:1]d'2 z^a |
[V:2]f2 zc |
[V:3]F2 zE |
[V:4]D,2 zF, |
[V:1]b2 z^a |
[V:2]d2 zc |
[V:3]D2 zE |
[V:4]B,,2 zF, |
[V:1]b2 z^g |
[V:2]d2 zB |
[V:3]D2 zD |
[V:4]B,,2 zE, |
[V:1]a^g ag |
[V:2]cB cB |
[V:3]CD CD |
[V:4]A,,E, A,,E, |
[V:1]a2 z2 |
[V:2]c2 zE |
[V:3]C2 zA, |
[V:4]A,,2 z2 |
[V:1]z4 |
[V:2]EE EE |
[V:3]A,A, A,A, |
[V:4]z4 |
[V:1]z3 e/d/ |
[V:2]EE EE |
[V:3]A,A, A,A, |
[V:4]z4 |
[V:1]cc/B/ AB |
[V:2]EE EE |
[V:3]A,A, A,A, |
[V:4]z4 |
[V:1]c/d/c/B/ Ae/d/ |
[V:2]EE EE |
[V:3]A,A, A,A, |
[V:4]z4 |
[V:1]cc/B/ AB |
[V:2]EE EE |
[V:3]A,A, A,A, |
[V:4]z4 |
[V:1]c2 Az |
[V:2]EE EE |
[V:3]A,A, A,A, |
[V:4]z3 E,/D,/ |
[V:1]z4 |
[V:2]EE EE |
[V:3]A,A, A,A, |
[V:4]C,C,/B,,/ A,,B,, |
[V:1]z4 |
[V:2]EE EE |
[V:3]A,A, A,A, |
[V:4]C,/D,/C,/B,,/ A,,E,/D,/ |
[V:1]z4 |
[V:2]EE EE |
[V:3]A,A, A,A, |
[V:4]C,C,/B,,/ A,,B,, |
[V:1]z3 ^g |
[V:2]EE Ed |
[V:3]A,A, A,B, |
[V:4]C,2 A,,E, |
[V:1]a^g ag |
[V:2]cd cd |
[V:3]CB, CB, |
[V:4]A,,E, A,,E, |
[V:1]a2 zf |
[V:2]c2 zA |
[V:3]C2 z=C |
[V:4]A,,2 zD, |
[V:1]gf gf |
[V:2]BA BA |
[V:3]B,=C B,C |
[V:4]G,,D, G,,D, |
[V:1]g2 z^d |
[V:2]B2 zA |
[V:3]B,2 zF |
[V:4]G,,2 z2 |
[V:1]e^d ef |
[V:2]B=c BB |
[V:3]GA G^D |
[V:4]z4 |
[V:1]gf gc |
[V:2]B3 A |
[V:3]E^D EG |
[V:4]z4 |
[V:1]dc de |
[V:2]A_B AA |
[V:3]FG FC |
[V:4]z4 |
[V:1]fe f^a |
[V:2]A3 c |
[V:3]DC DG |
[V:4]z3 E |
[V:1]b^a bc' |
[V:2]dc dg |
[V:3]FG Fe |
[V:4]DE D^A, |
[V:1]d'c' d'^a |
[V:2]fg fe |
[V:3]de dc |
[V:4]B,^A, B,C |
[V:1]b^a b=a |
[V:2]fg ff |
[V:3]Be dB |
[V:4]DC D^D |
[V:1]^g2 z2 |
[V:2]e2 z2 |
[V:3]BB BB |
[V:4]EE EE |
[V:1]z4 |
[V:2]z4 |
[V:3]BB BB |
[V:4]EE EE |
[V:1]z4 |
[V:2]z4 |
[V:3]BB BB |
[V:4]EE EE |
[V:1]z4 |
[V:2]z4 |
[V:3]BB BB |
[V:4]EE EE |
[V:1]gg gg |
[V:2]cc cc |
[V:3]BB BB |
[V:4]EE EE |
[V:1]gg gg |
[V:2]cc cc |
[V:3]BB BB |
[V:4]EE EE |
[V:1]ff/^g/ ^aa/b/ |
[V:2][cF][cF] [cF][cF] |
[V:3]^AA AA |
[V:4]EE EE |
[V:1]c'c'/d'/ e'^a |
[V:2][cF][cF] [cF][cF] |
[V:3]^AA Ac |
[V:4]EE EE |
[V:1]bb/c'/ d'd'/e'/ |
[V:2][BF][BF] [BF][BF] |
[V:3]FF FF |
[V:4]DD DD |
[V:1]f'f'/e'/ d'/c'/b/a/ |
[V:2][BF][BF] [BF][BF] |
[V:3]B,B, B,B, |
[V:4]DD DD |
[V:1]^ge/f/ gg/a/ |
[V:2][EB][BE] [BE][EB] |
[V:3]E^G GG |
[V:4]DD DD |
[V:1]bb/c'/ d'^g |
[V:2][BE][BE] [BE][BE] |
[V:3]^GG GB |
[V:4]DD DD |
[V:1]aa/b/ c'c'/d'/ |
[V:2][AE][AE] [EA][AE] |
[V:3]EE EE |
[V:4]CC CC |
[V:1]e'e'/d'/ c'/b/a/^g/ |
[V:2][AE][AE] [AE][AE] |
[V:3]A,A, A,A, |
[V:4]CC CC |
[V:1]fa/^g/ f/e/d/c/ |
[V:2][A2F2] z2 |
[V:3]D2 z2 |
[V:4]D2 z2 |
[V:1]Bf/e/ d/c/B/A/ |
[V:2]F2 z2 |
[V:3]D2 z2 |
[V:4]D,2 z2 |
[V:1]^Gf/e/ d/c/B/A/ |
[V:2]E2 z2 |
[V:3]B,2 z2 |
[V:4]D,2 z2 |
[V:1]^GB/A/ G/F/E/D/ |
[V:2]B,2 zB, |
[V:3]E2 zE, |
[V:4]D,2 z^G,, |
[V:1]CA,/B,/ CA,/B,/ |
[V:2]CA,/B,/ CA,/B,/ |
[V:3]E,A,/B,/ CA,/B,/ |
[V:4]A,,A,,/B,,/ C,A,,/B,,/ |
[V:1]CB,/C/ DC/D/ |
[V:2]CB,/C/ DC/D/ |
[V:3]CB,/C/ DC/D/ |
[V:4]C,B,,/C,/ D,C,/D,/ |
[V:1]ED/E/ FD/E/ |
[V:2]ED/E/ FD/E/ |
[V:3]ED/E/ FD/E/ |
[V:4]E,D,/E,/ F,D,/E,/ |
[V:1]FE/F/ ^GF/G/ |
[V:2]FE/F/ ^GF/G/ |
[V:3]FE/F/ ^GF/G/ |
[V:4]F,E,/F,/ ^G,F,/G,/ |
[V:1]AF/^G/ AF/G/ |
[V:2]AF/^G/ AF/G/ |
[V:3]AF/^G/ AF/G/ |
[V:4]A,F,/^G,/ A,F,/G,/ |
[V:1]A^G/A/ BA/B/ |
[V:2]A^G/A/ BA/B/ |
[V:3]A^G/A/ BA/B/ |
[V:4]A,^G,/A,/ B,A,/B,/ |
[V:1]=c4 |
[V:2]=c4 |
[V:3]=c4 |
[V:4]=C4 |
[V:1]A4 |
[V:2]A4 |
[V:3]A4 |
[V:4]A,4 |
[V:1]=f4 |
[V:2]_B4- |
[V:3][=F4-_B,4] |
[V:4]D,4- |
[V:1]d2 z_B |
[V:2]B2 zD |
[V:3][=F2B,2] zF |
[V:4]D,2 zD, |
[V:1]A2 zA |
[V:2]=C2 zC |
[V:3]E2 zE |
[V:4]E,2 zE, |
[V:1]^G2 zG |
[V:2]B,2 zB, |
[V:3]D2 zD |
[V:4]E,,2 zE,, |
[V:1]AA,/B,/ CC/D/ |
[V:2]A,2 zA,/B,/ |
[V:3]C2 z2 |
[V:4]A,,2 z2 |
[V:1]EE DC |
[V:2]CC B,A, |
[V:3]z4 |
[V:4]z3 A,, |
[V:1]B,B,/C/ DD/E/ |
[V:2]^G,2 zB,/C/ |
[V:3]z4 |
[V:4]E,2 z2 |
[V:1]FF ED |
[V:2]DD CB, |
[V:3]z4 |
[V:4]z3 E, |
[V:1]CA/B/ cc/d/ |
[V:2]A,2 zA/B/ |
[V:3]z4 |
[V:4]A,2 z2 |
[V:1]ee dc |
[V:2]cc BA |
[V:3]z4 |
[V:4]z4 |
[V:1]BB BB |
[V:2]EE EE |
[V:3]z4 |
[V:4]z3 E,,/F,,/ |
[V:1]BB BB |
[V:2]EE EE |
[V:3]z4 |
[V:4]^G,,G,,/A,,/ B,,B,,/C,/ |
[V:1]BB BB |
[V:2]EE EE |
[V:3]z4 |
[V:4]D,2 B,,^G,,/A,,/ |
[V:1]BB BB |
[V:2]EE EE |
[V:3]z4 |
[V:4]B,,B,,/C,/ D,D,/E,/ |
[V:1]BB BB |
[V:2]^DD DD |
[V:3]z4 |
[V:4]F,4 |
[V:1]BB BB |
[V:2]DD DD |
[V:3]EE EE |
[V:4]^G,4 |
[V:1]Az cz |
[V:2]Cz Az |
[V:3]Ez Az |
[V:4]A,A, F,F, |
[V:1]dz Bz |
[V:2]Bz ^Gz |
[V:3]Fz Dz |
[V:4]D,D, E,E, |
[V:1]A2 z2 |
[V:2]AA,/B,/ CC/D/ |
[V:3]C2 zA,/B,/ |
[V:4]A,,2 z2 |
[V:1]z4 |
[V:2]EE DC |
[V:3]CC B,A, |
[V:4]z3 A,, |
[V:1]z4 |
[V:2]B,B,/C/ DD/E/ |
[V:3]^G,2 zB,/C/ |
[V:4]E,,2 z2 |
[V:1]z4 |
[V:2]FF ED |
[V:3]DD CB, |
[V:4]z3 E,, |
[V:1]z4 |
[V:2]CA/B/ cc/d/ |
[V:3]A,2 zA/B/ |
[V:4]A,,2 z2 |
[V:1]z4 |
[V:2]ee dc |
[V:3]cc BA |
[V:4]z2 A,2 |
[V:1]z3 e/f/ |
[V:2]BB BB |
[V:3]^G2 z2 |
[V:4]EE EE |
[V:1]^gg/a/ bb/c'/ |
[V:2]BB BB |
[V:3]z4 |
[V:4]EE EE |
[V:1]d'2 b^g/a/ |
[V:2]BB BB |
[V:3]z4 |
[V:4]EE EE |
[V:1]bb/c'/ d'd'/e'/ |
[V:2]BB BB |
[V:3]z4 |
[V:4]EE EE |
[V:1]f'4 |
[V:2]BB BB |
[V:3]z4 |
[V:4]^DD DD |
[V:1]^g'4 |
[V:2]BB BB |
[V:3]EE EE |
[V:4]DD DD |
[V:1]a'/^g'/f'/e'/ d'/c'/b/a/ |
[V:2]AA AA |
[V:3]EE EE |
[V:4]CC CC |
[V:1]b/a/b/c'/ d'/e'/f'/^g'/ |
[V:2]^GG/A/ B/c/d/B/ |
[V:3]EE EE |
[V:4]DD DD |
[V:1]a'/^g'/f'/e'/ d'/c'/b/a/ |
[V:2]AA AA |
[V:3]EE EE |
[V:4]CC CC |
[V:1]b/a/b/c'/ d'/e'/f'/^g'/ |
[V:2]^G/F/G/A/ B/c/d/B/ |
[V:3]EE EE |
[V:4]DD DD |
[V:1]a'/^g'/f'/e'/ d'/c'/b/a/ |
[V:2]AA AA |
[V:3]EE EE |
[V:4]CC CC |
[V:1]b/a/b/c'/ d'/e'/f'/^g'/ |
[V:2]^G/F/G/A/ B/c/d/B/ |
[V:3]EE EE |
[V:4]DD DD |
[V:1]a'z b'z |
[V:2]Az ez |
[V:3]Ez Ez |
[V:4]Cz ^G,z |
[V:1]c''z d''z |
[V:2]ez az |
[V:3]Az Fz |
[V:4]A,z F,z |
[V:1]e''2 z2 |
[V:2]a2 z2 |
[V:3]E2 z2 |
[V:4]C,2 z2 |
[V:1]z4 |
[V:2]z4 |
[V:3]z4 |
[V:4]z4 |
[V:1]f/^g/f/^e/ f/g/f/e/ |
[V:2]F/^G/F/^E/ F/G/F/E/ |
[V:3]A,4- |
[V:4]D,4- |
[V:1]f^g af |
[V:2]F^G Ad |
[V:3]A,4- |
[V:4]D,4 |
[V:1]ea ce |
[V:2]c2 Ac |
[V:3]A,4 |
[V:4]E,4 |
[V:1]ed cB |
[V:2]cB A^G |
[V:3]E4 |
[V:4]E,,4 |
[V:1]Ae EB |
[V:2]A2 z^G |
[V:3]E2 zD |
[V:4]A,,2 zE, |
[V:1]ce E^G |
[V:2]A2 zD |
[V:3]C2 zB, |
[V:4]A,,2 zE, |
[V:1]Ae EB |
[V:2]C2 z^G |
[V:3]C2 zD |
[V:4]A,,2 zE, |
[V:1]ce E^G |
[V:2]A2 zD |
[V:3]C2 zB, |
[V:4]A,,2 zE, |
[V:1]A2 zB |
[V:2]C2 zE |
[V:3]C2 z2 |
[V:4]A,,2 z2 |
[V:1]c2 zd |
[V:2]A2 zB |
[V:3]z4 |
[V:4]z4 |
[V:1]e2 zf |
[V:2]c2 zd |
[V:3]z4 |
[V:4]z4 |
[V:1]g2 za |
[V:2]e2 zf |
[V:3]z4 |
[V:4]z4 |
[V:1]b2 z2 |
[V:2]g2 z2 |
[V:3]z4 |
[V:4]z4 |
[V:1]z3 c' |
[V:2]z3 g |
[V:3]z3 E |
[V:4]z3 A,, |
[V:1]d'4- |
[V:2]=f4- |
[V:3]D4- |
[V:4]_B,,4- |
[V:1]d'2 _b2 |
[V:2]f4- |
[V:3]D4- |
[V:4]B,,4- |
[V:1]=f2 d2 |
[V:2]f4 |
[V:3]D4- |
[V:4]B,,4- |
[V:1]_B2 B2 |
[V:2]d2 _B2 |
[V:3]D2 _B2 |
[V:4]B,,2 _B,2 |
[V:1]=F2 D2 |
[V:2]=F2 D2 |
[V:3]=F2 D2 |
[V:4]=F,2 D,2 |
[V:1]_B,2 z2 |
[V:2]_B,2 z=F |
[V:3]_B,2 zB, |
[V:4]_B,,2 z2 |
[V:1]z4 |
[V:2]=FF FF |
[V:3]_B,B, B,B, |
[V:4]z4 |
[V:1]z3 =f/_e/ |
[V:2]=FF FF |
[V:3]_B,B, B,B, |
[V:4]z4 |
[V:1]dd/=c/ _Bc |
[V:2]=FF FF |
[V:3]_B,B, B,B, |
[V:4]z4 |
[V:1]d/_e/d/=c/ _B=f/e/ |
[V:2]=FF FF |
[V:3]_B,B, B,B, |
[V:4]z4 |
[V:1]dd/=c/ _Bc |
[V:2]=FF FF |
[V:3]_B,B, B,B, |
[V:4]z4 |
[V:1]d2 _Bz |
[V:2]=FF FF |
[V:3]_B,B, B,B, |
[V:4]z3 =F,/_E,/ |
[V:1]z4 |
[V:2]=FF FF |
[V:3]_B,B, B,B, |
[V:4]D,D,/=C,/ _B,,C, |
[V:1]z4 |
[V:2]=FF FF |
[V:3]_B,B, B,B, |
[V:4]D,/_E,/D,/=C,/ _B,,=F,/E,/ |
[V:1]z4 |
[V:2]=FF FF |
[V:3]_B,B, B,B, |
[V:4]D,D,/=C,/ _B,,B,,/_A,,/ |
[V:1]zB/=c/ dd/_e/ |
[V:2]=FF FF |
[V:3]B,B, B,B, |
[V:4]G,,4- |
[V:1]=ff/g/ _aB |
[V:2]=FF FF |
[V:3]B,B, B,D |
[V:4]G,,4 |
[V:1]=c2 z2 |
[V:2]_EG GG |
[V:3]=CC CC |
[V:4]=C,2 zG,/=F,/ |
[V:1]z4 |
[V:2]GG GG |
[V:3]=CC CC |
[V:4]_E,E,/D,/ =C,D, |
[V:1]z4 |
[V:2]GG GG |
[V:3]=CC CC |
[V:4]_E,/=F,/E,/D,/ =C,G,/F,/ |
[V:1]z4 |
[V:2]GG GG |
[V:3]=CC CC |
[V:4]_E,E,/D,/ =C,C,/_B,,/ |
[V:1]zc/d/ ee/=f/ |
[V:2]GG GG |
[V:3]CC CC |
[V:4]A,,4- |
[V:1]gg/a/ _bc |
[V:2]GG GG |
[V:3]CC CE |
[V:4]A,,4 |
[V:1]d2 za/g/ |
[V:2]=FA AA |
[V:3]DD DD |
[V:4]D,2 z2 |
[V:1]=ff/e/ de |
[V:2]AA AA |
[V:3]DD DD |
[V:4]z4 |
[V:1]=f/g/f/e/ da/g/ |
[V:2]AA AA |
[V:3]DD DD |
[V:4]z4 |
[V:1]=ff/e/ de |
[V:2]AA AA |
[V:3]DD DD |
[V:4]z4 |
[V:1]=f2 d_b |
[V:2]AA AA |
[V:3]DD D=F |
[V:4]z3 D |
[V:1]_bb bb |
[V:2]AA AA |
[V:3]=FF FF |
[V:4]DD DD |
[V:1]_b/=c'/b/a/ gc' |
[V:2]GA _BB |
[V:3]E3 G |
[V:4]E3 E |
[V:1]=c'c' c'c' |
[V:2]_BB BB |
[V:3]GG GG |
[V:4]EE EE |
[V:1]=c'/d'/c'/_b/ ad' |
[V:2]A_B =cc |
[V:3]=F3 A |
[V:4]=F3 ^F |
[V:1]d'd' d'd' |
[V:2]=cc cA |
[V:3]AA AA |
[V:4]FF FF |
[V:1]_b/=c'/b/a/ gz |
[V:2]D2 zA |
[V:3]_B2 zF |
[V:4]G2 zD |
[V:1]z4 |
[V:2]AA AA |
[V:3]FF FF |
[V:4]DD DD |
[V:1]z3 B |
[V:2]_B/A/B/=c/ d^G |
[V:3]G/F/G/A/ _BE |
[V:4]_B,/=C/B,/A,/ G,z |
[V:1]BB BB |
[V:2]^GG GG |
[V:3]EE EE |
[V:4]z4 |
[V:1]=c/B/c/d/ ea |
[V:2]A/^G/A/B/ =c^D |
[V:3]=C/D/C/B,/ A,C |
[V:4]z3 =F, |
[V:1]aa aa |
[V:2]^DD DD |
[V:3]=CC CA, |
[V:4]=F,F, F,F, |
[V:1]^g/a/g/f/ eB |
[V:2]E2 zE |
[V:3]B,2 z2 |
[V:4]E,2 z2 |
[V:1]BB Bz |
[V:2]EE Ez |
[V:3]z3 B, |
[V:4]z3 E, |
[V:1]z3 B |
[V:2]z3 E |
[V:3]B,B, B,z |
[V:4]E,E, E,z |
[V:1]BB Bz |
[V:2]EE Ez |
[V:3]z3 B, |
[V:4]z3 E, |
[V:1]z3 G |
[V:2]z3 C |
[V:3]B,B, B,z |
[V:4]E,E, E,z |
[V:1]GG Gz |
[V:2]CC Cz |
[V:3]z3 B, |
[V:4]z3 E, |
[V:1]z3 G |
[V:2]z3 C |
[V:3]B,B, B,z |
[V:4]E,E, E,z |
[V:1]GG GG |
[V:2]CC CC |
[V:3]z3 B, |
[V:4]z3 E, |
[V:1]GG GG |
[V:2]CC CC |
[V:3]B,B, B,B, |
[V:4]E,E, E,E, |
[V:1]GG GG |
[V:2]CC CC |
[V:3]B,B, B,B, |
[V:4]E,E, E,E, |
[V:1]FF/^G/ ^AA/B/ |
[V:2]CC CC |
[V:3]^A,A, A,A, |
[V:4]E,E, E,E, |
[V:1]cc/d/ e^A |
[V:2][FC][FC] [FC][FC] |
[V:3]^A,A, A,F |
[V:4]E,E, E,E, |
[V:1]BB/c/ dd/e/ |
[V:2][FB,][FB,] [B,F][FB,] |
[V:3]FF FF |
[V:4]D,D, D,D, |
[V:1]f^g/^a/ bd |
[V:2][FB,][FB,] [FB,][B,F] |
[V:3]B,B, B,B, |
[V:4]D,D, D,D, |
[V:1]ce/f/ ge |
[V:2]GG/F/ Ec |
[V:3]B,B, B,B, |
[V:4]E,E, E,E, |
[V:1]df ^Ac |
[V:2]dB c^A |
[V:3]B,D FE |
[V:4]F,F, F,F, |
[V:1]BB,/C/ DC/D/ |
[V:2]BB,/C/ DC/D/ |
[V:3]DB,/C/ DC/D/ |
[V:4]B,,B,,/C,/ D,C,/D,/ |
[V:1]ED/E/ FE/F/ |
[V:2]ED/E/ FE/F/ |
[V:3]ED/E/ FE/F/ |
[V:4]E,D,/E,/ F,E,/F,/ |
[V:1]Gz gz |
[V:2]Gz ez |
[V:3]Gz Ez |
[V:4]G,z E,z |
[V:1]fz ^Az |
[V:2]dz Ez |
[V:3]Fz Fz |
[V:4]F,z F,z |
[V:1]B2 z2 |
[V:2]D2 z2 |
[V:3]FF FF |
[V:4]B,B, B,B, |
[V:1]z4 |
[V:2]z4 |
[V:3]FF FF |
[V:4]B,B, B,B, |
[V:1]z4 |
[V:2]z4 |
[V:3]FF FF |
[V:4]B,B, B,B, |
[V:1]z4 |
[V:2]z4 |
[V:3]FF FF |
[V:4]B,B, B,B, |
[V:1]dd dd |
[V:2]GG GG |
[V:3]FF FF |
[V:4]B,B, B,B, |
[V:1]dd dd |
[V:2]GG GG |
[V:3]FF FF |
[V:4]B,B, B,B, |
[V:1]gg gg |
[V:2]CC CC |
[V:3]ee ee |
[V:4]A,A, A,A, |
[V:1]gg gc' |
[V:2][Ec][cE] [Ec]a/g/ |
[V:3]ec AE |
[V:4]A,,A,, A,,A,, |
[V:1]d'2 zc' |
[V:2]f/g/f/e/ d/b/a/g/ |
[V:3]F2 z[AE] |
[V:4]D,,2 zA, |
[V:1]d'2 zc' |
[V:2]f/g/f/e/ d/b/a/g/ |
[V:3][F2A2] z[EA] |
[V:4]D2 zA, |
[V:1]d'2 zc' |
[V:2]f/g/f/e/ d/b/a/g/ |
[V:3][A2F2] z[EA] |
[V:4]D2 zA, |
[V:1]d'c' d'c' |
[V:2]f/b/a/g/ f/b/a/g/ |
[V:3][FA][EA] [AF][EA] |
[V:4]DA, DA, |
[V:1]d'2 z^a |
[V:2]f/g/f/e/ d/g/f/e/ |
[V:3][A2F2] z[cF] |
[V:4]D2 zF, |
[V:1]b^a ba |
[V:2]d/g/f/e/ d/g/f/e/ |
[V:3][dF][cF] [dF][cF] |
[V:4]B,F, B,F, |
[V:1]b2 zf |
[V:2]d/e/d/c/ B/e/d/=c/ |
[V:3][d2F2] zA |
[V:4]B,2 zD, |
[V:1]gf gf |
[V:2]B/e/d/=c/ B/e/d/c/ |
[V:3][DB][AD] [BD][AD] |
[V:4]G,D, G,D, |
[V:1]g2 z^d |
[V:2]B/=c/B/A/ G/c/B/A/ |
[V:3][B2D2] zF |
[V:4]G,2 zB,, |
[V:1]e^d ed |
[V:2]G/=c/B/A/ G/c/B/A/ |
[V:3][GB,][FB,] [GB,][FB,] |
[V:4]E,B,, E,B,, |
[V:1]ee/f/ gg/a/ |
[V:2]GB BB |
[V:3][G2B,2] zE/F/ |
[V:4]E,E, E,E, |
[V:1]bg ed |
[V:2]BB BB |
[V:3]G3 ^G |
[V:4]E,E, G,^G, |
[V:1]cA/B/ cc/d/ |
[V:2]E3 A/B/ |
[V:3]AC/D/ Ez |
[V:4]A,A, A,A, |
[V:1]ee/f/ gc |
[V:2]cc/d/ eG |
[V:3]G3 E |
[V:4]A,A, A,A, |
[V:1]df/g/ ab/c'/ |
[V:2]Fd/e/ f/d/B/A/ |
[V:3]F2 z2 |
[V:4]A,,A, A,A, |
[V:1]d'd'/c'/ d'^g |
[V:2]^G3 d |
[V:3]B4 |
[V:4]A,A, A,A, |
[V:1]aa/b/ c'c'/d'/ |
[V:2]ce/d/ cg/f/ |
[V:3]AC/B,/ A,E/D/ |
[V:4]A,,A, A,A, |
[V:1]e'e'/f'/ g'c' |
[V:2]ee/d/ ce |
[V:3]CG/F/ EA, |
[V:4]A,A, A,G, |
[V:1]d'c' d'c' |
[V:2]d2 zg |
[V:3]A,2 ze |
[V:4]F,2 z2 |
[V:1]d'c' d'^g |
[V:2]a2 zd |
[V:3]f2 zB |
[V:4]z4 |
[V:1]a^g af |
[V:2]e2 zc |
[V:3]c2 z^A |
[V:4]z4 |
[V:1]gf g^e |
[V:2]d2 zd |
[V:3]B2 zB |
[V:4]z4 |
[V:1]f^e f^d |
[V:2]cd c=c |
[V:3]^AB A=A |
[V:4]z4 |
[V:1]e^d ec |
[V:2]B=c B_B |
[V:3]^GA G=G |
[V:4]z4 |
[V:1]dc de |
[V:2]A_B AA |
[V:3]FG FC |
[V:4]z4 |
[V:1]fe fg |
[V:2]A3 d |
[V:3]DC DD |
[V:4]z3 B, |
[V:1]a^g a^a |
[V:2]d4- |
[V:3]D4 |
[V:4]F,^E, F,F, |
[V:1]bg ed |
[V:2]d3 B |
[V:3]B,3 E |
[V:4]G,2 z^G, |
[V:1]c2 z2 |
[V:2]A2 z2 |
[V:3]EE EE |
[V:4]A,A, A,A, |
[V:1]z4 |
[V:2]z4 |
[V:3]EE EE |
[V:4]A,A, A,A, |
[V:1]z4 |
[V:2]z4 |
[V:3]EE EE |
[V:4]A,A, A,A, |
[V:1]z4 |
[V:2]z4 |
[V:3]EE EE |
[V:4]A,A, A,A, |
[V:1]=cc cc |
[V:2]FF FF |
[V:3]EE EE |
[V:4]A,A, A,A, |
[V:1]=cc cc |
[V:2]FF FF |
[V:3]EE EE |
[V:4]A,A, A,A, |
[V:1]BB/c/ ^dd/e/ |
[V:2][B,F][FB,] [FB,][FB,] |
[V:3]^DD DD |
[V:4]A,A, A,A, |
[V:1]ff/g/ a^d |
[V:2][B,F][FB,] [B,F][FB,] |
[V:3]^DD DF |
[V:4]A,A, A,A, |
[V:1]ee/f/ gg/a/ |
[V:2][B,E][B,E] [B,E][B,E] |
[V:3]B,B BB |
[V:4]G,G, G,G, |
[V:1]bb/a/ g/f/e/d/ |
[V:2][B,E][B,E] [B,E][B,E] |
[V:3]EE EE |
[V:4]G,G, G,G, |
[V:1]cA/B/ cc/d/ |
[V:2][EA,][A,E] [EA,][A,E] |
[V:3]AC CC |
[V:4]G,G, G,G, |
[V:1]ee/f/ gc |
[V:2][A,E][EA,] [A,E][A,E] |
[V:3]CC CE |
[V:4]G,G, G,G, |
[V:1]dd/e/ ff/g/ |
[V:2][A,D][DA,] [A,D][A,D] |
[V:3]A,A AA |
[V:4]F,F, F,F, |
[V:1]aa/g/ f/e/d/c/ |
[V:2][A,D][DA,] [A,D][A,D] |
[V:3]DD DD |
[V:4]F,F, F,F, |
[V:1]Bd'/c'/ b/a/g/f/ |
[V:2][B,2D2] z2 |
[V:3]D2 z2 |
[V:4]G,2 z2 |
[V:1]eb/a/ g/f/e/d/ |
[V:2]B2 z2 |
[V:3]G2 z2 |
[V:4]G,2 z2 |
[V:1]c/d/e/f/ g/a/b/c'/ |
[V:2][A4E4] |
[V:3]c3 e |
[V:4]G,4 |
[V:1]d'e' f'd' |
[V:2][FA]G FA |
[V:3]dc dd |
[V:4]F,E, D,F, |
[V:1]bd' bg |
[V:2]B2 ge |
[V:3]d2 z2 |
[V:4]G,4 |
[V:1]fa ce |
[V:2]df ec |
[V:3]z2 G2 |
[V:4]A,2 A,,2 |
[V:1]dD/E/ FF/G/ |
[V:2]d2 zD/E/ |
[V:3]F2 z2 |
[V:4]D,2 z2 |
[V:1]AA GF |
[V:2]FF ED |
[V:3]z4 |
[V:4]z3 D, |
[V:1]EE/F/ GG/A/ |
[V:2]C2 zE/F/ |
[V:3]z4 |
[V:4]A,2 z2 |
[V:1]BB AG |
[V:2]GG FE |
[V:3]z4 |
[V:4]z3 A,, |
[V:1]Fd/e/ ff/g/ |
[V:2]D2 zd/e/ |
[V:3]z4 |
[V:4]D,2 z2 |
[V:1]aa gf |
[V:2]ff ed |
[V:3]z4 |
[V:4]z4 |
[V:1]ee ee |
[V:2]AA AA |
[V:3]z4 |
[V:4]z3 A,,/B,,/ |
[V:1]ee ee |
[V:2]AA AA |
[V:3]z4 |
[V:4]C,C,/D,/ E,E,/F,/ |
[V:1]ee ee |
[V:2]AA AA |
[V:3]z4 |
[V:4]G,2 E,C,/D,/ |
[V:1]ee ee |
[V:2]AA AA |
[V:3]z4 |
[V:4]E,E,/F,/ G,G,/A,/ |
[V:1]ee ee |
[V:2]^GG GG |
[V:3]z4 |
[V:4]B,4 |
[V:1]ee ee |
[V:2]GG GG |
[V:3]AA AA |
[V:4]C4 |
[V:1]dz fz |
[V:2]Fz dz |
[V:3]Az dz |
[V:4]DD B,B, |
[V:1]gz ez |
[V:2]ez cz |
[V:3]Bz Gz |
[V:4]G,G, A,A, |
[V:1]d2 z2 |
[V:2]d2 z2 |
[V:3]FD,/E,/ F,F,/G,/ |
[V:4]D,2 zD,/E,/ |
[V:1]z4 |
[V:2]z4 |
[V:3]A,A, G,F, |
[V:4]F,F, E,D, |
[V:1]z4 |
[V:2]z4 |
[V:3]E,E,/F,/ G,G,/A,/ |
[V:4]A,,2 zE,/F,/ |
[V:1]z4 |
[V:2]z4 |
[V:3]B,B, A,G, |
[V:4]G,G, F,E, |
[V:1]z4 |
[V:2]zD/E/ FF/G/ |
[V:3]F,2 zD/E/ |
[V:4]D,2 z2 |
[V:1]z4 |
[V:2]AA GF |
[V:3]FF ED |
[V:4]z4 |
[V:1]z3 A/B/ |
[V:2]EE EE |
[V:3]A,A, A,A, |
[V:4]z4 |
[V:1]cc/d/ ee/f/ |
[V:2]EE EE |
[V:3]A,A, A,A, |
[V:4]z4 |
[V:1]g2 ec/d/ |
[V:2]EE EE |
[V:3]A,A, A,A, |
[V:4]z4 |
[V:1]ee/f/ gg/a/ |
[V:2]EE EE |
[V:3]A,A, A,A, |
[V:4]z4 |
[V:1]b4 |
[V:2]EE EE |
[V:3]^G,G, G,G, |
[V:4]z4 |
[V:1]c'4 |
[V:2]ee ee |
[V:3]G,G, G,A |
[V:4]A,,3 G, |
[V:1]d'/c'/b/a/ g/f/e/d/ |
[V:2]dd dd |
[V:3]AA AA |
[V:4]F,F, F,F, |
[V:1]e/d/e/f/ g/a/b/c'/ |
[V:2]cc/d/ e/f/g/e/ |
[V:3]AA AA |
[V:4]G,G, G,G, |
[V:1]d'/c'/b/a/ g/f/e/d/ |
[V:2]dd dd |
[V:3]AA AA |
[V:4]F,F, F,F, |
[V:1]e/d/e/f/ g/a/b/c'/ |
[V:2]c/B/c/d/ e/f/g/e/ |
[V:3]AA AA |
[V:4]G,G, G,G, |
[V:1]d'/c'/b/a/ g/f/e/d/ |
[V:2]dd dd |
[V:3]AA AA |
[V:4]F,F, F,F, |
[V:1]e/d/e/f/ g/a/b/c'/ |
[V:2]c/B/c/d/ e/f/g/e/ |
[V:3]AA AA |
[V:4]G,G, G,G, |
[V:1]d'z e'z |
[V:2]dz az |
[V:3]Az Az |
[V:4]F,z C,z |
[V:1]f'z g'z |
[V:2]az d'z |
[V:3]dz Bz |
[V:4]D,z B,,z |
[V:1]a'2 z2 |
[V:2]d'2 z2 |
[V:3]A2 z2 |
[V:4]F,,2 z2 |
[V:1]z4 |
[V:2]z4 |
[V:3]z4 |
[V:4]z4 |
[V:1]b/c'/b/^a/ b/c'/b/a/ |
[V:2]B/c/B/^A/ B/c/B/A/ |
[V:3]D4- |
[V:4]G,4- |
[V:1]bc' d'b |
[V:2]Bc dg |
[V:3]D4- |
[V:4]G,4 |
[V:1]ad' fa |
[V:2]f2 df |
[V:3]D4 |
[V:4]A,4 |
[V:1]ag fe |
[V:2]fe dc |
[V:3]A4 |
[V:4]A,,4 |
[V:1]da Ae |
[V:2]d2 zc |
[V:3]A2 zG |
[V:4]D,2 zA, |
[V:1]fa Ac |
[V:2]d2 zG |
[V:3]F2 zE |
[V:4]D,2 zA, |
[V:1]da Ae |
[V:2]F2 zc |
[V:3]F2 zG |
[V:4]D,2 zA, |
[V:1]fa Ac |
[V:2]d2 zG |
[V:3]F2 zE |
[V:4]D,2 zA, |
[V:1]d2 ze |
[V:2]F2 zc |
[V:3]F2 zG |
[V:4]D,2 zA, |
[V:1]f2 zc' |
[V:2]d2 zg |
[V:3]F2 zE |
[V:4]D,2 zA, |
[V:1]d'2 zc' |
[V:2]f2 zg |
[V:3]F2 zE |
[V:4]D,2 zA,, |
[V:1]d'c' d'c' |
[V:2]fg fg |
[V:3]FE FE |
[V:4]D,,A,, D,,A,, |
[V:1]d'2 z2 |
[V:2]f2 z2 |
[V:3]F2 z2 |
[V:4]D,,2 z2 |
[V:1][f2D2A2] z2 |
[V:2][f2D2A2] z2 |
[V:3][D2D,2A,2] z2 |
[V:4]D,,2 z2 |
[V:1]D2 z2 |]
[V:2][f2D2A2] z2 |]
[V:3][D2D,2A,2] z2 |]
[V:4]D,,2 z2 |]

